src/assets/icons/filters/categories/all.svg

<svg width="48" height="45" viewBox="0 0 48 45" fill="none" xmlns="http://www.w3.org/2000/svg">
<path opacity="0.822" fill-rule="evenodd" clip-rule="evenodd" d="M24 20.3701C30.0978 20.3701 35.2485 23.6378 35.2485 27.5017C35.2485 31.3657 30.0978 34.6315 24 34.6315C17.9023 34.6315 12.7498 31.3638 12.7498 27.5017C12.7498 23.6378 17.9023 20.3701 24 20.3701Z" fill="#E7EBED"/>
<path fill-rule="evenodd" clip-rule="evenodd" d="M4.05273 41.2517L10.1929 30.0272C11.7289 34.4764 17.2359 37.6887 24.0001 37.6887C30.7274 37.6887 36.2122 34.5096 37.7833 30.0974L43.9364 41.2517H4.05273ZM23.9946 5.11007L31.5692 18.8379C29.3871 17.876 26.8062 17.3148 24.0001 17.3148C21.1516 17.3148 18.5301 17.8926 16.3276 18.884L23.9946 5.11192V5.11007Z" fill="#CFD8DC"/>
<path fill-rule="evenodd" clip-rule="evenodd" d="M24.0002 24.4445C25.6543 24.4445 27.0002 25.8162 27.0002 27.5017C27.0002 29.1854 25.6543 30.5571 24.0002 30.5571C22.3461 30.5571 21.0002 29.1854 21.0002 27.5017C21.0002 25.8162 22.3461 24.4445 24.0002 24.4445Z" fill="#CFD8DC"/>
<path fill-rule="evenodd" clip-rule="evenodd" d="M4.05272 41.2517L10.1929 30.0272C11.7289 34.4764 17.2359 37.6887 24.0001 37.6887C30.7274 37.6887 36.2122 34.5096 37.7833 30.0974L43.9364 41.2517H4.05272ZM23.9946 5.11008L31.5692 18.8379C29.3871 17.876 26.8062 17.3148 24.0001 17.3148C21.1515 17.3148 18.53 17.8927 16.3276 18.884L23.9946 5.11192V5.11008ZM24.0001 20.3702C30.0979 20.3702 35.2485 23.6378 35.2485 27.5017C35.2485 31.3657 30.0979 34.6315 24.0001 34.6315C17.9024 34.6315 12.7498 31.3638 12.7498 27.5017C12.7498 23.6378 17.9024 20.3702 24.0001 20.3702ZM25.3072 1.01721L47.8077 41.9126C47.9362 42.1563 48.0022 42.428 47.9999 42.7034C47.9977 42.9789 47.9272 43.2495 47.7948 43.491C47.5253 43.9599 47.0324 44.307 46.4988 44.307H1.49952C1.23695 44.306 0.979287 44.2358 0.752435 44.1036C0.525584 43.9714 0.337548 43.7818 0.207236 43.5538C0.0743382 43.3232 0.00300262 43.0624 9.27395e-05 42.7963C-0.00281714 42.5302 0.0627951 42.2678 0.19062 42.0344L11.4409 21.4668L22.6949 1.01168C22.9626 0.531685 23.4592 0 24.002 0C24.5447 0 25.0413 0.535376 25.3072 1.01721V1.01721ZM24.0001 24.4445C25.6542 24.4445 27.0001 25.8162 27.0001 27.5017C27.0001 29.1854 25.6542 30.5571 24.0001 30.5571C22.346 30.5571 21.0002 29.1854 21.0002 27.5017C21.0002 25.8162 22.346 24.4445 24.0001 24.4445ZM24.0001 33.6124C27.3084 33.6124 30 30.8709 30 27.5017C30 24.1307 27.3084 21.3911 24.0001 21.3911C20.6918 21.3911 18.0002 24.1307 18.0002 27.5017C18.0002 30.8709 20.6918 33.6124 24.0001 33.6124ZM37.499 9.16786C37.3014 9.16749 37.1058 9.12761 36.9238 9.05057C36.7419 8.97353 36.5771 8.86088 36.4393 8.71925C36.1576 8.43033 36 8.04278 36 7.63927C36 7.23575 36.1576 6.84821 36.4393 6.55929L40.9402 1.97535C41.0779 1.83378 41.2427 1.72126 41.4247 1.64442C41.6067 1.56759 41.8023 1.528 41.9998 1.528C42.1974 1.528 42.3929 1.56759 42.5749 1.64442C42.757 1.72126 42.9217 1.83378 43.0595 1.97535C43.3412 2.26427 43.4989 2.65182 43.4989 3.05534C43.4989 3.45885 43.3412 3.8464 43.0595 4.13532L38.5605 8.71925C38.4225 8.8611 38.2574 8.97388 38.0751 9.05093C37.8928 9.12798 37.6969 9.16773 37.499 9.16786ZM39.0146 16.8053C39.0146 15.9708 39.6793 15.2785 40.5008 15.2785H46.5007C47.3204 15.2785 47.9831 15.9708 47.9831 16.8053C47.9831 17.6416 47.3204 18.3339 46.5007 18.3339H40.5008C40.1014 18.3271 39.7209 18.1625 39.4425 17.8761C39.164 17.5897 39.0102 17.2047 39.0146 16.8053V16.8053ZM9.43971 8.71925L4.9407 4.13532C4.65901 3.8464 4.50135 3.45885 4.50135 3.05534C4.50135 2.65182 4.65901 2.26427 4.9407 1.97535C5.07852 1.8335 5.2434 1.72073 5.42558 1.64373C5.60775 1.56673 5.80352 1.52706 6.0013 1.52706C6.19908 1.52706 6.39485 1.56673 6.57703 1.64373C6.7592 1.72073 6.92408 1.8335 7.0619 1.97535L11.5609 6.55929C11.8426 6.84821 12.0003 7.23575 12.0003 7.63927C12.0003 8.04278 11.8426 8.43033 11.5609 8.71925C11.4228 8.86065 11.2579 8.97301 11.0757 9.04972C10.8936 9.12643 10.6979 9.16595 10.5003 9.16595C10.3027 9.16595 10.107 9.12643 9.9249 9.04972C9.74276 8.97301 9.57779 8.86065 9.43971 8.71925V8.71925ZM1.50137 18.3339C1.30241 18.3322 1.10574 18.2913 0.922599 18.2135C0.739459 18.1358 0.573443 18.0227 0.434046 17.8807C0.294649 17.7387 0.184605 17.5707 0.110208 17.3862C0.0358111 17.2016 -0.00147877 17.0042 0.000469509 16.8053C-0.00123481 16.6065 0.0362368 16.4093 0.110743 16.225C0.185249 16.0407 0.295332 15.8728 0.434705 15.731C0.574077 15.5893 0.74001 15.4763 0.923029 15.3987C1.10605 15.3211 1.30257 15.2802 1.50137 15.2785H7.50128C7.90245 15.2824 8.28567 15.4454 8.56675 15.7317C8.84783 16.018 9.00378 16.4041 9.00033 16.8053C9.00228 17.0041 8.96505 17.2013 8.89077 17.3857C8.81649 17.5701 8.70661 17.7381 8.56741 17.8801C8.42821 18.022 8.26241 18.1351 8.07948 18.213C7.89655 18.2909 7.70008 18.3319 7.50128 18.3339H1.50137V18.3339Z" fill="black"/>
</svg>

<svg width="48" height="45" viewBox="0 0 48 45" fill="none" xmlns="http://www.w3.org/2000/svg"><path opacity=".822" fill-rule="evenodd" clip-rule="evenodd" d="M24 20.37c6.098 0 11.248 3.268 11.248 7.132s-5.15 7.13-11.248 7.13c-6.098 0-11.25-3.268-11.25-7.13 0-3.864 5.152-7.132 11.25-7.132z" fill="#E7EBED"/><path fill-rule="evenodd" clip-rule="evenodd" d="M4.053 41.252l6.14-11.225c1.536 4.45 7.043 7.662 13.807 7.662 6.727 0 12.212-3.18 13.783-7.592l6.153 11.155H4.053zM23.995 5.11l7.574 13.728c-2.182-.962-4.763-1.523-7.569-1.523-2.848 0-5.47.578-7.672 1.569l7.667-13.772V5.11z" fill="#CFD8DC"/><path fill-rule="evenodd" clip-rule="evenodd" d="M24 24.445c1.654 0 3 1.371 3 3.057 0 1.683-1.346 3.055-3 3.055s-3-1.372-3-3.055c0-1.686 1.346-3.057 3-3.057z" fill="#CFD8DC"/><path fill-rule="evenodd" clip-rule="evenodd" d="M4.053 41.252l6.14-11.225c1.536 4.45 7.043 7.662 13.807 7.662 6.727 0 12.212-3.18 13.783-7.592l6.153 11.155H4.053zM23.995 5.11l7.574 13.728c-2.182-.962-4.763-1.523-7.569-1.523-2.849 0-5.47.578-7.672 1.569l7.667-13.772V5.11zM24 20.37c6.098 0 11.248 3.268 11.248 7.132s-5.15 7.13-11.248 7.13c-6.098 0-11.25-3.268-11.25-7.13 0-3.864 5.152-7.132 11.25-7.132zm1.307-19.353l22.5 40.896a1.666 1.666 0 01-.012 1.578c-.27.469-.763.816-1.296.816h-45a1.495 1.495 0 01-1.292-.753 1.55 1.55 0 01-.016-1.52l11.25-20.567L22.695 1.012C22.963.532 23.459 0 24.002 0c.543 0 1.04.535 1.305 1.017zM24 24.445c1.654 0 3 1.371 3 3.057 0 1.683-1.346 3.055-3 3.055s-3-1.372-3-3.055c0-1.686 1.346-3.057 3-3.057zm0 9.167c3.308 0 6-2.741 6-6.11 0-3.371-2.692-6.11-6-6.11s-6 2.739-6 6.11c0 3.369 2.692 6.11 6 6.11zM37.5 9.168a1.483 1.483 0 01-1.06-.449 1.547 1.547 0 010-2.16l4.501-4.584a1.478 1.478 0 012.12 0 1.547 1.547 0 010 2.16l-4.5 4.584a1.482 1.482 0 01-1.061.449zm1.516 7.637c0-.834.664-1.527 1.486-1.527h6c.82 0 1.482.693 1.482 1.527 0 .837-.663 1.529-1.482 1.529h-6a1.512 1.512 0 01-1.486-1.529zM9.44 8.72l-4.5-4.584a1.547 1.547 0 010-2.16 1.479 1.479 0 012.122 0L11.56 6.56a1.547 1.547 0 010 2.16 1.482 1.482 0 01-2.121 0zM1.5 18.334A1.513 1.513 0 010 16.805a1.514 1.514 0 011.5-1.527h6A1.514 1.514 0 019 16.805a1.514 1.514 0 01-1.5 1.529h-6z" fill="#000"/></svg>
